X:1
T:036 - O Amor de Jesus
T:Letra: Manuel Avelino de Souza (1886-1962)
T:Música: Philip Paul Bliss (1838-1876)
M:6/8
L:1/8
Q:1/4=100
K:G
V:1
"G"DDD DDD| DGA B3| "D7"AAA AAG| BBA "G"G2z | DDD DDD| DGA B3| "D7"AAA AAG| BBA "G"G2z || "G"ddd d2B| "C"AGE E3| "D7"DDD A3| "G"DGA B2z | ddd d2B| "C"AGE E3| "D7"DDD A2B| "G"G3- G2z|]
w: 1.~Ó ma-ra-vi-lha doa-mor de Je-sus, Des-sead-mi-rá-vel a-mor sem i-gual! Cris-to pe-nou e mor-reu nu-ma cruz, Pa-ra sal-var-me da mor-tee-ter-nal. Cris-to, meu Mes-tre, vei-o por mim,    Vei-o por mim, vei-o por mim;    Cris-to, meu Mes-tre, vei-o por mim,        Vei-o pra me sal-var._
w: 2.~Oh, du-vi-dar po-de-rei eu ja-mais Des-sein-son-dá-vel a-mor de Je-sus! E-le me vei-o tra-zer su-a paz, Dan-do-meen-tra-da no rei-no de luz.
w: 3.~Cris-to, meu Mes-tre Di-vi-no, meu Deus, Quis-me re-mir e me dar seu fa-vor; E-le mea-briu o ca-mi-nho dos céus, E mea-do-tou co-mo fi-lho dea-mor.
w: 4.~Vou-meen-tre-gar a Je-sus, e, fi-el, Que-ro fa-zer co-nhe-ci-does-sea-mor Que me sal-vou deu-ma mor-te cru-el; Que-ro vi-ver pa-ra meu Sal-va-dor.
W: 
W:
W: 1. Ó maravilha do amor de Jesus,
W: Desse admirável amor sem igual!
W: Cristo penou e morreu numa cruz,
W: Para salvar-me da morte eternal.
W: 
W:    (Estribilho)
W:    Cristo, meu Mestre, veio por mim,
W:    Veio por mim, veio por mim;
W:    Cristo, meu Mestre, veio por mim,    
W:    Veio pra me salvar.
W: 
W: 2. Oh, duvidar poderei eu jamais
W: Desse insondável amor de Jesus!
W: Ele me veio trazer sua paz,
W: Dando-me entrada no reino de luz.
W: 
W: 
W: 
W: 3. Cristo, meu Mestre Divino, meu Deus,
W: Quis-me remir e me dar seu favor;
W: Ele me abriu o caminho dos céus,
W: E me adotou como filho de amor.
W: 
W: 4. Vou-me entregar a Jesus, e, fiel,
W: Quero fazer conhecido esse amor
W: Que me salvou de uma morte cruel;
W: Quero viver para meu Salvador.
W: 
W: 





